PortableApps/LibreOfficePortable/App/libreoffice/help/media/icon-themes/cmd/sc_showdetail.svg

<svg viewBox="0 0 16 16" xmlns="http://www.w3.org/2000/svg"><path d="m7.4882812 2c-.2703603 0-.4882812.2179209-.4882812.4882812v.0234376c0 .2703603.2179209.4882812.4882812.4882812h7.0234378c.27036 0 .488281-.2179209.488281-.4882812v-.0234376c0-.2703603-.217921-.4882812-.488281-.4882812zm-.0117187 2c-.2637206 0-.4765625.2128419-.4765625.4765625v.046875c0 .2637206.2128419.4765625.4765625.4765625h7.0468755c.26372 0 .476562-.2128419.476562-.4765625v-.046875c0-.2637206-.212842-.4765625-.476562-.4765625zm1 3c-.2637206 0-.4765625.2128419-.4765625.4765625v.046875c0 .2637206.2128419.4765625.4765625.4765625h6.0468755c.26372 0 .476562-.2128419.476562-.4765625v-.046875c0-.2637206-.212842-.4765625-.476562-.4765625zm-.0117187 2c-.2570812 0-.4648438.2077626-.4648438.4648438v.0703124c0 .2570812.2077626.4648438.4648438.4648438h6.0703122c.257081 0 .464844-.2077626.464844-.4648438v-.0703124c0-.2570812-.207763-.4648438-.464844-.4648438zm-.9648438 3c-.277 0-.5.223-.5.5s.223.5.5.5h7c.277 0 .5-.223.5-.5s-.223-.5-.5-.5zm0 2c-.277 0-.5.223-.5.5s.223.5.5.5h7c.277 0 .5-.223.5-.5s-.223-.5-.5-.5z" fill="#808080"/><path d="m3 5v2h-2v2h2v2h2v-2h2v-2h-2v-2z" fill="#76a797"/></svg>

<svg viewBox="0 0 16 16" xmlns="http://www.w3.org/2000/svg">
  <path
     style="fill:#808080"
     d="M 7.4882812 2 C 7.2179209 2 7 2.2179209 7 2.4882812 L 7 2.5117188 C 7 2.7820791 7.2179209 3 7.4882812 3 L 14.511719 3 C 14.782079 3 15 2.7820791 15 2.5117188 L 15 2.4882812 C 15 2.2179209 14.782079 2 14.511719 2 L 7.4882812 2 z M 7.4765625 4 C 7.2128419 4 7 4.2128419 7 4.4765625 L 7 4.5234375 C 7 4.7871581 7.2128419 5 7.4765625 5 L 14.523438 5 C 14.787158 5 15 4.7871581 15 4.5234375 L 15 4.4765625 C 15 4.2128419 14.787158 4 14.523438 4 L 7.4765625 4 z M 8.4765625 7 C 8.2128419 7 8 7.2128419 8 7.4765625 L 8 7.5234375 C 8 7.7871581 8.2128419 8 8.4765625 8 L 14.523438 8 C 14.787158 8 15 7.7871581 15 7.5234375 L 15 7.4765625 C 15 7.2128419 14.787158 7 14.523438 7 L 8.4765625 7 z M 8.4648438 9 C 8.2077626 9 8 9.2077626 8 9.4648438 L 8 9.5351562 C 8 9.7922374 8.2077626 10 8.4648438 10 L 14.535156 10 C 14.792237 10 15 9.7922374 15 9.5351562 L 15 9.4648438 C 15 9.2077626 14.792237 9 14.535156 9 L 8.4648438 9 z M 7.5 12 C 7.223 12 7 12.223 7 12.5 C 7 12.777 7.223 13 7.5 13 L 14.5 13 C 14.777 13 15 12.777 15 12.5 C 15 12.223 14.777 12 14.5 12 L 7.5 12 z M 7.5 14 C 7.223 14 7 14.223 7 14.5 C 7 14.777 7.223 15 7.5 15 L 14.5 15 C 14.777 15 15 14.777 15 14.5 C 15 14.223 14.777 14 14.5 14 L 7.5 14 z "
     />
  <path
     style="fill:#76a797"
     d="M 3,5 V 7 H 1 v 2 h 2 v 2 H 5 V 9 H 7 V 7 H 5 V 5 Z"
     />
</svg>
